libs/ui/packages/crypto-icons/src/svg/ENTRP.svg

<svg width="24" height="24" viewBox="0 0 24 24" fill="none">
<path d="M11.0741 3.36144C10.9931 3.37269 10.6804 3.43119 10.3796 3.47694C8.70113 3.76044 7.15088 4.58244 5.86613 5.87244C4.57613 7.15719 3.78863 8.64444 3.45863 10.4152C3.30863 11.2199 3.30863 12.7934 3.45863 13.5982C3.78863 15.3682 4.57613 16.8554 5.86613 18.1402C7.15088 19.4302 8.63738 20.2177 10.4081 20.5477C11.2129 20.6977 12.7864 20.6977 13.5911 20.5477C15.3611 20.2177 16.8491 19.4302 18.1339 18.1402C19.4239 16.8554 20.2114 15.3689 20.5414 13.5982C20.6914 12.7934 20.6914 11.2199 20.5414 10.4152C20.2114 8.64519 19.4239 7.15719 18.1339 5.87244C16.8776 4.61094 15.4601 3.84144 13.7419 3.49494C13.2094 3.38469 11.4386 3.29769 11.0741 3.36144ZM14.1641 6.42894C14.2331 6.45744 14.2564 6.54369 14.2564 6.77544V7.08819H13.8919C13.4291 7.08819 13.0646 7.26144 12.9139 7.55094C12.8156 7.73619 12.8096 7.96194 12.8096 10.7047C12.8096 12.3247 12.7871 13.6844 12.7639 13.7249C12.6424 13.9102 11.7514 13.9627 11.3516 13.8059L11.1896 13.7422V10.7512C11.1896 7.96119 11.1836 7.73619 11.0854 7.55094C10.9354 7.26144 10.5701 7.08819 10.1074 7.08819H9.74288V6.77544C9.74288 6.57894 9.77213 6.45144 9.81788 6.43419C9.92288 6.38769 14.0539 6.38769 14.1641 6.42819V6.42894ZM10.8424 8.84094V9.55344L10.6744 9.65094C10.4261 9.79644 10.0091 10.2299 9.84188 10.5134C9.74024 10.6993 9.65854 10.8954 9.59813 11.0984L9.50588 11.4284H8.84063C8.08238 11.4284 8.10563 11.4569 8.26763 10.8209C8.47013 10.0507 8.96213 9.26919 9.55763 8.79519C9.88763 8.52894 10.6166 8.12919 10.7614 8.12919C10.8251 8.12919 10.8424 8.27994 10.8424 8.84169V8.84094ZM13.7126 8.33244C14.207 8.57933 14.643 8.92901 14.9913 9.35805C15.3397 9.78709 15.5923 10.2856 15.7324 10.8202C15.8944 11.4569 15.9176 11.4277 15.1594 11.4277H14.4941L14.4011 11.0977C14.3409 10.8949 14.2595 10.6991 14.1581 10.5134C13.9901 10.2299 13.5731 9.79644 13.3249 9.65094L13.1569 9.55344V8.84094C13.1569 8.27994 13.1741 8.12919 13.2379 8.12919C13.2784 8.12919 13.4929 8.22219 13.7126 8.33169V8.33244ZM9.51188 11.9722C9.51188 12.2437 9.69113 12.7994 9.87638 13.0889C10.8656 14.6564 13.1336 14.6564 14.1236 13.0889C14.3089 12.7994 14.4881 12.2437 14.4881 11.9714V11.7749H15.8711L15.8419 12.0757C15.6971 13.4819 14.9216 14.6167 13.7066 15.2182C13.1456 15.4957 12.6536 15.6119 11.9996 15.6119C9.97463 15.6119 8.37188 14.1359 8.15738 12.0757L8.12888 11.7757H9.51188V11.9722ZM12.8389 16.1557C12.9139 16.5607 13.3309 16.8097 13.9556 16.8097H14.2564V17.4457H9.74288V16.8262L10.1651 16.7977C10.4374 16.7804 10.6571 16.7287 10.7786 16.6589C10.9586 16.5547 11.1896 16.2074 11.1896 16.0454C11.1896 15.9877 11.3749 15.9704 11.9936 15.9704H12.8036L12.8389 16.1557Z" fill="#FA5836"/>
</svg>

<svg width="24" height="24" viewBox="0 0 24 24" fill="none"><path fill="#fa5836" d="M11.074 3.361c-.08.012-.394.07-.694.116-1.68.283-3.23 1.105-4.514 2.395-1.29 1.285-2.076 2.772-2.406 4.543-.15.805-.15 2.378 0 3.183.33 1.77 1.117 3.257 2.407 4.542 1.285 1.29 2.771 2.078 4.542 2.408.805.15 2.378.15 3.183 0 1.77-.33 3.258-1.118 4.543-2.408 1.29-1.285 2.077-2.771 2.407-4.542.15-.805.15-2.378 0-3.183-.33-1.77-1.117-3.258-2.407-4.543-1.256-1.261-2.674-2.03-4.392-2.377-.533-.11-2.303-.197-2.668-.134m3.09 3.068c.07.028.092.115.092.346v.313h-.364c-.463 0-.827.173-.978.463-.098.185-.104.41-.104 3.154 0 1.62-.023 2.98-.046 3.02-.122.185-1.013.238-1.412.08l-.162-.063v-2.99c0-2.79-.006-3.016-.105-3.201-.15-.29-.515-.463-.978-.463h-.364v-.313c0-.196.03-.324.075-.34.105-.047 4.236-.047 4.346-.007M10.842 8.84v.712l-.168.098c-.248.145-.665.579-.832.862a3 3 0 0 0-.244.585l-.092.33H8.84c-.759 0-.735.029-.573-.607.202-.77.694-1.552 1.29-2.026.33-.266 1.059-.666 1.203-.666.064 0 .081.15.081.713zm2.87-.509a3.88 3.88 0 0 1 2.02 2.488c.162.637.186.608-.573.608h-.665l-.093-.33a3 3 0 0 0-.243-.585c-.168-.283-.585-.717-.833-.862l-.168-.098V8.84c0-.561.017-.712.08-.712.041 0 .256.093.476.203m-4.2 3.64c0 .272.18.827.364 1.117a2.506 2.506 0 0 0 4.248 0c.185-.29.364-.845.364-1.118v-.196h1.383l-.03.3c-.144 1.407-.92 2.542-2.134 3.143a3.6 3.6 0 0 1-1.707.394c-2.025 0-3.628-1.476-3.843-3.536l-.028-.3h1.383zm3.327 4.184c.075.405.492.654 1.117.654h.3v.636H9.743v-.62l.422-.028c.272-.018.492-.07.614-.14.18-.103.41-.45.41-.613 0-.057.186-.075.805-.075h.81z"/></svg>
